X:1
T:St. Serf
T:Lahee
T:St. Serf
C:Lahee
%%score { ( 1 2 ) | ( 3 4 ) }
L:1/8
Q:1/4=240
M:4/2
K:Bb
V:1 treble nm="Piano" snm="Pno."
V:2 treble 
V:3 bass 
V:4 bass 
V:1
 F4 | d4 d4 B4 B4 | c4 c4 F4 (G2 A2) | B4 B4 B4 (c2 d2) | e4 e4 d4 d4 | c6 c2 c4 F4 | B4 B4 B4 d4 | %7
 c6 c2 c4 F4 | A4 G4 F6 F2 | F4 F4 F4 F4 | A4 B4 c4 F4 | F4 F4 F4 F4 | c4 d4 e4 F4 | d4 d4 B4 B4 | %14
 c4 c4 F6 F2 | B6 B2 B4 B4 | d12 c4 | B12 |] %18
V:2
 F4 | F4 F4 F4 F4 | G4 G4 F4 F4 | F4 F4 G4 F4 | E4 F4 F4 F4 | =E4 E4 F4 F4 | F4 F4 =E4 E4 | %7
 F4 G4 F4 F4 | F4 =E4 F6 F2 | F4 F4 F4 F4 | F4 F4 F4 F4 | F4 F4 F4 F4 | F4 F4 F4 F4 | F4 F4 F4 F4 | %14
 G4 G4 F6 F2 | F6 F2 F4 =E4 | F12 E4 | D12 |] %18
V:3
 F,4 | B,4 B,4 B,4 B,4 | B,4 B,4 A,4 C4 | B,4 B,4 B,4 B,4 | G,4 A,4 B,4 B,4 | C4 C4 C4 C4 | %6
 D4 D4 B,4 B,4 | C4 B,4 A,4 =B,4 | C4 =B,4 A,6 F,2 | F,4 F,4 F,4 F,4 | C4 D4 E4 F,4 | %11
 F,4 F,4 F,4 F,4 | A,4 B,4 C4 F,4 | B,4 B,4 B,4 B,4 | B,4 B,4 A,6 A,2 | B,6 B,2 B,4 B,4 | %16
 B,12 A,4 | B,12 |] %18
V:4
 F,4 | B,,4 B,,4 D,4 D,4 | E,4 E,4 F,4 E,4 | D,4 D,4 E,4 D,4 | C,4 C,4 B,,4 B,,4 | %5
 B,4 B,4 A,4 A,4 | G,4 G,4 G,4 G,4 | A,4 =E,4 F,4 D,4 | C,4 C,4 F,6 F,2 | F,4 F,4 F,4 F,4 | %10
 F,4 F,4 F,4 F,4 | F,4 F,4 F,4 F,4 | F,4 F,4 F,8 | B,,4 B,,4 D,4 D,4 | E,4 E,4 F,6 E,2 | %15
 D,6 D,2 G,4 G,4 | F,12 F,4 | B,,12 |] %18

